Sources/FrostedUI/Resources/Icons.xcassets/rotateCard12.imageset/rotate-card-12.svg

<svg width="12" height="13" viewBox="0 0 12 13" fill="none" xmlns="http://www.w3.org/2000/svg" data-fui-icon="true">
  <path
    d="M2.99988 2.25082C3.00018 0.772943 4.4018 -0.303457 5.82984 0.0770843L10.3297 1.27723C11.3143 1.53994 11.9993 2.43193 11.9995 3.45097V8.64607C11.9995 9.66526 11.3143 10.557 10.3297 10.8198L5.82984 12.02C4.40171 12.4005 3.00001 11.3242 2.99988 9.84622V9.0484C3.00002 8.63448 3.33595 8.29868 3.74985 8.29843C4.16395 8.29843 4.49967 8.63433 4.49982 9.0484V9.84622C4.49995 10.3387 4.96723 10.6974 5.44314 10.5708L9.94295 9.37065C10.2712 9.28305 10.4996 8.98579 10.4996 8.64607V3.45097C10.4994 3.11139 10.2711 2.81392 9.94295 2.72639L5.44314 1.52624C4.96733 1.39966 4.50012 1.75847 4.49982 2.25082V3.33379C4.49982 3.74798 4.16404 4.08376 3.74985 4.08376C3.33586 4.08351 2.99988 3.74783 2.99988 3.33379V2.25082ZM5.96948 3.76834C6.26229 3.4756 6.73711 3.47572 7.02999 3.76834L8.77992 5.51827C9.07272 5.81113 9.07272 6.28591 8.77992 6.57877L7.02999 8.3287C6.73711 8.62132 6.26229 8.62144 5.96948 8.3287C5.67692 8.03588 5.67692 7.56102 5.96948 7.2682L6.43919 6.79849H2.4999C2.11479 6.79857 1.86022 6.89627 1.71868 7.00942C1.59982 7.10463 1.50002 7.2561 1.49994 7.54846C1.49994 7.96266 1.16417 8.29843 0.749969 8.29843C0.335994 8.29817 0 7.9625 0 7.54846C9.61609e-05 6.84172 0.275776 6.24322 0.781218 5.83857C1.26447 5.45196 1.88575 5.29863 2.4999 5.29855H6.43919L5.96948 4.82884C5.67692 4.53602 5.67692 4.06116 5.96948 3.76834Z"
    fill="currentColor"
  />
</svg>

<svg xmlns="http://www.w3.org/2000/svg" width="12" height="13" fill="none" data-fui-icon="true" viewBox="0 0 12 13"><path fill="currentColor" d="M3 2.25A2.25 2.25 0 0 1 5.83.078l4.5 1.2A2.25 2.25 0 0 1 12 3.451v5.195a2.25 2.25 0 0 1-1.67 2.174l-4.5 1.2A2.25 2.25 0 0 1 3 9.846v-.798a.75.75 0 0 1 1.5 0v.798a.75.75 0 0 0 .943.725l4.5-1.2a.75.75 0 0 0 .557-.725V3.451a.75.75 0 0 0-.557-.725l-4.5-1.2a.75.75 0 0 0-.943.725v1.083a.75.75 0 0 1-1.5 0zm2.97 1.518a.75.75 0 0 1 1.06 0l1.75 1.75a.75.75 0 0 1 0 1.06l-1.75 1.75a.75.75 0 0 1-1.06-1.06l.47-.47H2.5c-.385 0-.64.098-.781.211-.12.096-.219.247-.22.54a.75.75 0 1 1-1.499 0c0-.707.276-1.306.781-1.71.483-.387 1.105-.54 1.719-.54h3.94l-.47-.47a.75.75 0 0 1 0-1.06"/></svg>
